icon/pk/boiler.svg

<svg viewBox="0 0 48 48" fill="none" xmlns="http://www.w3.org/2000/svg" height="1em" width="1em">
  <rect x="5" y="6" width="38" height="8" rx="2" fill="#2F88FF" stroke="black" stroke-width="4" stroke-linejoin="round"/>
  <path d="M8 14V40C8 41.1046 8.89543 42 10 42H38C39.1046 42 40 41.1046 40 40V14" stroke="black" stroke-width="4" stroke-linejoin="round"/>
  <path d="M31 29.0667C31 32.8958 27.866 36 24 36C20.134 36 17 32.8958 17 29.0667C17 25.2375 19.6923 23.7333 20.7692 20C25.0769 21.8666 25.0769 27.4667 25.0769 27.4667C25.0769 27.4667 26.1538 24.2667 29.3846 23.4667C29.6538 26.4 31 27.4316 31 29.0667Z" fill="#2F88FF" stroke="black" stroke-width="4" stroke-linecap="round" stroke-linejoin="round"/>
</svg>

<svg width="48" height="48" fill="none" xmlns="http://www.w3.org/2000/svg"><rect x="5" y="6" width="38" height="8" rx="2" fill="#2F88FF" stroke="#000" stroke-width="4" stroke-linejoin="round"/><path d="M8 14v26a2 2 0 0 0 2 2h28a2 2 0 0 0 2-2V14" stroke="#000" stroke-width="4" stroke-linejoin="round"/><path d="M31 29.067C31 32.896 27.866 36 24 36s-7-3.104-7-6.933c0-3.83 2.692-5.334 3.77-9.067 4.307 1.867 4.307 7.467 4.307 7.467s1.077-3.2 4.308-4C29.654 26.4 31 27.432 31 29.067Z" fill="#2F88FF" stroke="#000" stroke-width="4" stroke-linecap="round" stroke-linejoin="round"/></svg>
